output/footprints/LKBD_PlateMX.pretty/Plate_MX_1U.svg

<?xml version="1.0" standalone="no"?>
 <!DOCTYPE svg PUBLIC "-//W3C//DTD SVG 1.1//EN" 
 "http://www.w3.org/Graphics/SVG/1.1/DTD/svg11.dtd"> 
<svg
  xmlns:svg="http://www.w3.org/2000/svg"
  xmlns="http://www.w3.org/2000/svg"
  xmlns:xlink="http://www.w3.org/1999/xlink"
  version="1.1"
  width="19.1262mm" height="19.1262mm" viewBox="0.0000 0.0000 19.1262 19.1262">
<title>SVG Image created as Plate_MX_1U.svg date 2025/05/12 22:52:38 </title>
  <desc>Image generated by PCBNEW </desc>
<g style="fill:#000000; fill-opacity:1.0000;stroke:#000000; stroke-opacity:1.0000;
stroke-linecap:round; stroke-linejoin:round;"
 transform="translate(0 0) scale(1 1)">
</g>
<g style="fill:none; 
stroke:#4D7FC4; stroke-width:0.5000; stroke-opacity:1; 
stroke-linecap:round; stroke-linejoin:round;">
<path d="M2.3250 16.0750
L2.3250 3.0750
" />
<path d="M3.0750 2.3250
L16.0750 2.3250
" />
<path d="M16.0750 16.8250
L3.0750 16.8250
" />
<path d="M16.8250 3.0750
L16.8250 16.0750
" />
<path d="M3.0750 2.3250 A0.7500 0.7500 0.0 0 0 2.3250 3.0750" />
<path d="M2.3250 16.0750 A0.7500 0.7500 0.0 0 0 3.0750 16.8250" />
<path d="M16.8250 3.0750 A0.7500 0.7500 0.0 0 0 16.0750 2.3250" />
<path d="M16.0750 16.8250 A0.7500 0.7500 0.0 0 0 16.8250 16.0750" />
</g>
<g style="fill:none; 
stroke:#C83434; stroke-width:0.5000; stroke-opacity:1; 
stroke-linecap:round; stroke-linejoin:round;">
<path d="M2.3250 16.0750
L2.3250 3.0750
" />
<path d="M3.0750 2.3250
L16.0750 2.3250
" />
<path d="M16.0750 16.8250
L3.0750 16.8250
" />
<path d="M16.8250 3.0750
L16.8250 16.0750
" />
<path d="M3.0750 2.3250 A0.7500 0.7500 0.0 0 0 2.3250 3.0750" />
<path d="M2.3250 16.0750 A0.7500 0.7500 0.0 0 0 3.0750 16.8250" />
<path d="M16.8250 3.0750 A0.7500 0.7500 0.0 0 0 16.0750 2.3250" />
<path d="M16.0750 16.8250 A0.7500 0.7500 0.0 0 0 16.8250 16.0750" />
</g>
<g style="fill:none; 
stroke:#AFAFAF; stroke-width:0.1500; stroke-opacity:1; 
stroke-linecap:round; stroke-linejoin:round;">
<text x="9.5750" y="9.2750"
textLength="9.7262" font-size="1.3333" lengthAdjust="spacingAndGlyphs"
text-anchor="middle" opacity="0" stroke-opacity="0">Plate_MX_1U</text>
<g class="stroked-text"><desc>Plate_MX_1U</desc>
<path d="M5.0750 9.2298
L5.0750 8.2298
" />
<path d="M5.0750 8.2298
L5.4560 8.2298
" />
<path d="M5.4560 8.2298
L5.5512 8.2774
" />
<path d="M5.5512 8.2774
L5.5988 8.3251
" />
<path d="M5.5988 8.3251
L5.6464 8.4203
" />
<path d="M5.6464 8.4203
L5.6464 8.5632
" />
<path d="M5.6464 8.5632
L5.5988 8.6584
" />
<path d="M5.5988 8.6584
L5.5512 8.7060
" />
<path d="M5.5512 8.7060
L5.4560 8.7536
" />
<path d="M5.4560 8.7536
L5.0750 8.7536
" />
<path d="M6.2179 9.2298
L6.1226 9.1822
" />
<path d="M6.1226 9.1822
L6.0750 9.0870
" />
<path d="M6.0750 9.0870
L6.0750 8.2298
" />
<path d="M7.0274 9.2298
L7.0274 8.7060
" />
<path d="M7.0274 8.7060
L6.9798 8.6108
" />
<path d="M6.9798 8.6108
L6.8845 8.5632
" />
<path d="M6.8845 8.5632
L6.6940 8.5632
" />
<path d="M6.6940 8.5632
L6.5988 8.6108
" />
<path d="M7.0274 9.1822
L6.9321 9.2298
" />
<path d="M6.9321 9.2298
L6.6940 9.2298
" />
<path d="M6.6940 9.2298
L6.5988 9.1822
" />
<path d="M6.5988 9.1822
L6.5512 9.0870
" />
<path d="M6.5512 9.0870
L6.5512 8.9917
" />
<path d="M6.5512 8.9917
L6.5988 8.8965
" />
<path d="M6.5988 8.8965
L6.6940 8.8489
" />
<path d="M6.6940 8.8489
L6.9321 8.8489
" />
<path d="M6.9321 8.8489
L7.0274 8.8012
" />
<path d="M7.3607 8.5632
L7.7417 8.5632
" />
<path d="M7.5036 8.2298
L7.5036 9.0870
" />
<path d="M7.5036 9.0870
L7.5512 9.1822
" />
<path d="M7.5512 9.1822
L7.6464 9.2298
" />
<path d="M7.6464 9.2298
L7.7417 9.2298
" />
<path d="M8.4560 9.1822
L8.3607 9.2298
" />
<path d="M8.3607 9.2298
L8.1702 9.2298
" />
<path d="M8.1702 9.2298
L8.0750 9.1822
" />
<path d="M8.0750 9.1822
L8.0274 9.0870
" />
<path d="M8.0274 9.0870
L8.0274 8.7060
" />
<path d="M8.0274 8.7060
L8.0750 8.6108
" />
<path d="M8.0750 8.6108
L8.1702 8.5632
" />
<path d="M8.1702 8.5632
L8.3607 8.5632
" />
<path d="M8.3607 8.5632
L8.4560 8.6108
" />
<path d="M8.4560 8.6108
L8.5036 8.7060
" />
<path d="M8.5036 8.7060
L8.5036 8.8012
" />
<path d="M8.5036 8.8012
L8.0274 8.8965
" />
<path d="M8.6940 9.3251
L9.4560 9.3251
" />
<path d="M9.6940 9.2298
L9.6940 8.2298
" />
<path d="M9.6940 8.2298
L10.0274 8.9441
" />
<path d="M10.0274 8.9441
L10.3607 8.2298
" />
<path d="M10.3607 8.2298
L10.3607 9.2298
" />
<path d="M10.7417 8.2298
L11.4083 9.2298
" />
<path d="M11.4083 8.2298
L10.7417 9.2298
" />
<path d="M11.5512 9.3251
L12.3131 9.3251
" />
<path d="M13.0750 9.2298
L12.5036 9.2298
" />
<path d="M12.7893 9.2298
L12.7893 8.2298
" />
<path d="M12.7893 8.2298
L12.6940 8.3727
" />
<path d="M12.6940 8.3727
L12.5988 8.4679
" />
<path d="M12.5988 8.4679
L12.5036 8.5155
" />
<path d="M13.5036 8.2298
L13.5036 9.0393
" />
<path d="M13.5036 9.0393
L13.5512 9.1346
" />
<path d="M13.5512 9.1346
L13.5988 9.1822
" />
<path d="M13.5988 9.1822
L13.6940 9.2298
" />
<path d="M13.6940 9.2298
L13.8845 9.2298
" />
<path d="M13.8845 9.2298
L13.9798 9.1822
" />
<path d="M13.9798 9.1822
L14.0274 9.1346
" />
<path d="M14.0274 9.1346
L14.0750 9.0393
" />
<path d="M14.0750 9.0393
L14.0750 8.2298
" />
</g><text x="9.5750" y="10.8750"
textLength="4.5357" font-size="1.3333" lengthAdjust="spacingAndGlyphs"
text-anchor="middle" opacity="0" stroke-opacity="0">REF**</text>
<g class="stroked-text"><desc>REF**</desc>
<path d="M8.2417 10.8298
L7.9083 10.3536
" />
<path d="M7.6702 10.8298
L7.6702 9.8298
" />
<path d="M7.6702 9.8298
L8.0512 9.8298
" />
<path d="M8.0512 9.8298
L8.1464 9.8774
" />
<path d="M8.1464 9.8774
L8.1940 9.9251
" />
<path d="M8.1940 9.9251
L8.2417 10.0203
" />
<path d="M8.2417 10.0203
L8.2417 10.1632
" />
<path d="M8.2417 10.1632
L8.1940 10.2584
" />
<path d="M8.1940 10.2584
L8.1464 10.3060
" />
<path d="M8.1464 10.3060
L8.0512 10.3536
" />
<path d="M8.0512 10.3536
L7.6702 10.3536
" />
<path d="M8.6702 10.3060
L9.0036 10.3060
" />
<path d="M9.1464 10.8298
L8.6702 10.8298
" />
<path d="M8.6702 10.8298
L8.6702 9.8298
" />
<path d="M8.6702 9.8298
L9.1464 9.8298
" />
<path d="M9.9083 10.3060
L9.5750 10.3060
" />
<path d="M9.5750 10.8298
L9.5750 9.8298
" />
<path d="M9.5750 9.8298
L10.0512 9.8298
" />
<path d="M10.5750 9.8298
L10.5750 10.0679
" />
<path d="M10.3369 9.9727
L10.5750 10.0679
" />
<path d="M10.5750 10.0679
L10.8131 9.9727
" />
<path d="M10.4321 10.2584
L10.5750 10.0679
" />
<path d="M10.5750 10.0679
L10.7179 10.2584
" />
<path d="M11.3369 9.8298
L11.3369 10.0679
" />
<path d="M11.0988 9.9727
L11.3369 10.0679
" />
<path d="M11.3369 10.0679
L11.5750 9.9727
" />
<path d="M11.1940 10.2584
L11.3369 10.0679
" />
<path d="M11.3369 10.0679
L11.4798 10.2584
" />
</g></g>
<g style="fill:none; 
stroke:#D0D2CD; stroke-width:0.0500; stroke-opacity:1; 
stroke-linecap:round; stroke-linejoin:round;">
<path d="M2.5750 16.0750
L2.5750 3.0750
" />
<path d="M3.0750 2.5750
L16.0750 2.5750
" />
<path d="M16.0750 16.5750
L3.0750 16.5750
" />
<path d="M16.5750 3.0750
L16.5750 16.0750
" />
<path d="M3.0750 2.5750 A0.5000 0.5000 0.0 0 0 2.5750 3.0750" />
<path d="M2.5750 16.0750 A0.5000 0.5000 0.0 0 0 3.0750 16.5750" />
<path d="M16.5750 3.0750 A0.5000 0.5000 0.0 0 0 16.0750 2.5750" />
<path d="M16.0750 16.5750 A0.5000 0.5000 0.0 0 0 16.5750 16.0750" />
<path style="fill:none; 
stroke:#C2C2C2; stroke-width:0.1000; stroke-opacity:1; 
stroke-linecap:round; stroke-linejoin:round;fill:none"
d="M 0.0500,0.0500
19.1000,0.0500
19.1000,19.1000
0.0500,19.1000
Z" /> 
</g> 
</svg>

<svg xmlns="http://www.w3.org/2000/svg" width="72.288" height="72.288" viewBox="0 0 19.126 19.126">
    <g style="fill:none;stroke:#4d7fc4;stroke-width:.5;stroke-opacity:1;stroke-linecap:round;stroke-linejoin:round">
        <path d="M2.325 16.075v-13M3.075 2.325h13M16.075 16.825h-13M16.825 3.075v13M3.075 2.325a.75.75 0 0 0-.75.75M2.325 16.075a.75.75 0 0 0 .75.75M16.825 3.075a.75.75 0 0 0-.75-.75M16.075 16.825a.75.75 0 0 0 .75-.75"/>
    </g>
    <g style="fill:none;stroke:#c83434;stroke-width:.5;stroke-opacity:1;stroke-linecap:round;stroke-linejoin:round">
        <path d="M2.325 16.075v-13M3.075 2.325h13M16.075 16.825h-13M16.825 3.075v13M3.075 2.325a.75.75 0 0 0-.75.75M2.325 16.075a.75.75 0 0 0 .75.75M16.825 3.075a.75.75 0 0 0-.75-.75M16.075 16.825a.75.75 0 0 0 .75-.75"/>
    </g>
    <g style="fill:none;stroke:#afafaf;stroke-width:.15;stroke-opacity:1;stroke-linecap:round;stroke-linejoin:round">
        <g class="stroked-text">
            <path d="M5.075 9.23v-1M5.075 8.23h.381M5.456 8.23l.095.047M5.551 8.277l.048.048M5.599 8.325l.047.095M5.646 8.42v.143M5.646 8.563l-.047.095M5.599 8.658l-.048.048M5.551 8.706l-.095.048M5.456 8.754h-.381M6.218 9.23l-.095-.048M6.123 9.182l-.048-.095M6.075 9.087V8.23M7.027 9.23v-.524M7.027 8.706l-.047-.095M6.98 8.61l-.096-.047M6.885 8.563h-.191M6.694 8.563l-.095.048M7.027 9.182l-.095.048M6.932 9.23h-.238M6.694 9.23l-.095-.048M6.599 9.182l-.048-.095M6.551 9.087v-.095M6.551 8.992l.048-.096M6.599 8.897l.095-.048M6.694 8.849h.238M6.932 8.849l.095-.048M7.36 8.563h.382M7.504 8.23v.857M7.504 9.087l.047.095M7.551 9.182l.095.048M7.646 9.23h.096M8.456 9.182l-.095.048M8.36 9.23h-.19M8.17 9.23l-.095-.048M8.075 9.182l-.048-.095M8.027 9.087v-.381M8.027 8.706l.048-.095M8.075 8.61l.095-.047M8.17 8.563h.19M8.36 8.563l.096.048M8.456 8.61l.048.096M8.504 8.706v.095M8.504 8.801l-.477.095M8.694 9.325h.762M9.694 9.23v-1M9.694 8.23l.333.714M10.027 8.944l.334-.714M10.36 8.23v1M10.742 8.23l.666 1M11.408 8.23l-.666 1M11.551 9.325h.762M13.075 9.23h-.571M12.79 9.23v-1M12.79 8.23l-.096.143M12.694 8.373l-.095.095M12.599 8.468l-.095.047M13.504 8.23v.81M13.504 9.04l.047.095M13.551 9.135l.048.047M13.599 9.182l.095.048M13.694 9.23h.19M13.885 9.23l.095-.048M13.98 9.182l.047-.047M14.027 9.135l.048-.096M14.075 9.04v-.81"/>
        </g>
        <g class="stroked-text">
            <path d="m8.242 10.83-.334-.476M7.67 10.83v-1M7.67 9.83h.381M8.051 9.83l.095.047M8.146 9.877l.048.048M8.194 9.925l.048.095M8.242 10.02v.143M8.242 10.163l-.048.095M8.194 10.258l-.048.048M8.146 10.306l-.095.048M8.051 10.354h-.38M8.67 10.306h.334M9.146 10.83H8.67M8.67 10.83v-1M8.67 9.83h.476M9.908 10.306h-.333M9.575 10.83v-1M9.575 9.83h.476M10.575 9.83v.238M10.337 9.973l.238.095M10.575 10.068l.238-.095M10.432 10.258l.143-.19M10.575 10.068l.143.19M11.337 9.83v.238M11.099 9.973l.238.095M11.337 10.068l.238-.095M11.194 10.258l.143-.19M11.337 10.068l.143.19"/>
        </g>
    </g>
    <g style="fill:none;stroke:#d0d2cd;stroke-width:.05;stroke-opacity:1;stroke-linecap:round;stroke-linejoin:round">
        <path d="M2.575 16.075v-13M3.075 2.575h13M16.075 16.575h-13M16.575 3.075v13M3.075 2.575a.5.5 0 0 0-.5.5M2.575 16.075a.5.5 0 0 0 .5.5M16.575 3.075a.5.5 0 0 0-.5-.5M16.075 16.575a.5.5 0 0 0 .5-.5"/>
        <path d="M.05.05H19.1V19.1H.05Z" style="stroke:#c2c2c2;stroke-width:.1;stroke-opacity:1;stroke-linecap:round;stroke-linejoin:round;fill:none"/>
    </g>
</svg>
